libs/ui/packages/crypto-icons/src/svg/MEM.svg

<svg width="24" height="24" viewBox="0 0 24 24" fill="none" xmlns="http://www.w3.org/2000/svg">
<path d="M6.70015 19.1401H17.5543C19.55 19.1401 20.815 16.9872 19.8109 15.2469L13.1122 3.63598C12.675 2.87785 11.5794 2.87785 11.1424 3.63598L4.44216 15.2469C3.43951 16.9845 4.70443 19.1401 6.69876 19.1401H6.70015ZM13.1176 7.1179L14.5764 9.94146L18.0966 16.2373C18.3289 16.6403 18.042 17.1566 17.5557 17.1566H13.1189V7.11654L13.1176 7.1179ZM6.16058 16.2387L9.67937 9.94009L11.1383 7.1179V17.158H6.70152C6.21521 17.158 5.92836 16.6416 6.16058 16.2387Z" fill="white"/>
</svg>

<svg xmlns="http://www.w3.org/2000/svg" width="24" height="24" viewBox="0 0 24 24" fill="none"><path fill="#fff" d="M6.7 19.14h10.854c1.996 0 3.261-2.153 2.257-3.893L13.112 3.636a1.137 1.137 0 0 0-1.97 0l-6.7 11.61c-1.002 1.74.262 3.894 2.258 3.894m6.418-12.022 1.458 2.823 3.52 6.296a.615.615 0 0 1-.54.92h-4.437zm-6.957 9.12L9.679 9.94l1.46-2.822v10.04H6.701a.615.615 0 0 1-.541-.92"/></svg>
